X:93
T:Mayor Harrison's Fedora
M:C|
L:1/8
Q:120
R:Reel (Key of Edor)
K:Edor
EF |:"Em"GBEG ~B2 AF | GFGA "A"BdAG | "D"FADF ADFA | "Bm"~d2 cd BAGF|
"Em"GBEG ~B2 AF|GFGA ~B3 c|"D"dedB "Bm"AFDF |1 GEFD "Em"~E3F :|2 GEFD "Em"~E3 A |:
"Em"Beed e2 ef | "G"g2 fg edBA | "D"FABc d2 dc | "Bm"dfaf gfed |
"Em"Beed e2 ef | "G"g2 fg edBc | "D"dedB "Bm"AFDF |1GEFD "Em"~E3 A:|2 GEFD "Em"~E3F|
|: "G"G2GF GABc | "D"dBAG FADA | "Em"Beed efge | "Bm"fedf "Em"edBc | "D"~d3B ~A3F |"G"GFEF GABc | "D"~d3B "Bm"AFDF | GEFD "Em"E3F :|]
